X: 3361
T: Ben Lomond
R: strathspey
M: 4/4
K: Dmajor
B|:A>F A<d A>F A<d|B>A B<d e/e/e e>f|e<f f>d e<f d>A|1 B<d A>F D/D/D D>B:|2 B<d A>F D/D/D Df/g/|
|:a<f d>f a>f d>f|e<d e>fe2e>f|1 a<f d>f a>b a>f|e>d e>fd2f>g:|2 e<f f>d e<f d>A|B<d A>F D/D/D D||

